assets/icons/icon_student.svg

<svg width="30" height="30" viewBox="0 0 30 30" fill="none" xmlns="http://www.w3.org/2000/svg">
<g clip-path="url(#clip0_116_320)">
<path d="M27.3486 14.2244V5.05374C27.3486 4.91628 27.311 4.79048 27.2549 4.6747C27.2887 4.58101 27.3486 4.49833 27.3486 4.39456C27.3486 4.00233 27.0886 3.65728 26.7109 3.54911L14.4062 0.0334863C14.2483 -0.0111621 14.0818 -0.0111621 13.9239 0.0334863L1.61918 3.54911C1.24148 3.65728 0.981445 4.00233 0.981445 4.39456C0.981445 4.78679 1.24148 5.13185 1.61918 5.24001L6.25488 6.56446V7.60462C6.25488 8.60452 6.81024 9.5238 7.66939 9.94608C11.609 11.8824 16.7194 11.8816 20.6607 9.94696C21.5199 9.52468 22.0753 8.6054 22.0753 7.60462V6.56446L25.5909 5.56005V14.2244C24.5701 14.5885 23.8331 15.5549 23.8331 16.6992V18.4571C23.8331 18.9429 24.2262 19.336 24.712 19.336H28.2276C28.7134 19.336 29.1065 18.9429 29.1065 18.4571V16.6992C29.1064 15.5549 28.3695 14.5885 27.3486 14.2244Z" fill="#4F46E5"/>
<path d="M21.347 11.6417C19.1377 12.7275 16.6237 13.3008 14.0771 13.3008C11.5305 13.3008 9.01568 12.7266 6.80552 11.6408C6.58966 11.5347 6.41089 11.3775 6.21906 11.2373C6.40679 14.4008 8.10882 17.0851 10.5142 18.4604C10.5142 18.4604 11.748 19.0433 12.1335 19.1529L12.135 19.15C12.7593 19.328 13.4021 19.4532 14.0771 19.4532C14.6951 19.4532 15.5753 19.3299 16.4549 19.0051C16.8601 18.8608 17.6371 18.4622 17.6371 18.4622C20.044 17.0874 21.7472 14.4022 21.9351 11.2377C21.7428 11.378 21.5635 11.5354 21.347 11.6417Z" fill="#6366F1"/>
<path d="M14.0772 21.211C13.3686 21.211 12.6868 21.1017 12.0224 20.9413L14.0772 24.0235L16.1204 20.9442C15.4595 21.1027 14.7816 21.211 14.0772 21.211Z" fill="#818CF8"/>
<path d="M19.1364 19.6345C19.1208 19.645 19.1034 19.6522 19.0879 19.6626L18.3486 20.7715C18.3486 20.8124 14.9787 25.8526 14.9561 25.8867V30H26.3818C26.8676 30 27.2607 29.6069 27.2607 29.1211C27.2607 24.3214 23.7282 20.3816 19.1364 19.6345ZM21.1084 26.4844H19.3506C18.8648 26.4844 18.4717 26.0913 18.4717 25.6055C18.4717 25.1197 18.8648 24.7266 19.3506 24.7266H21.1084C21.5942 24.7266 21.9873 25.1197 21.9873 25.6055C21.9873 26.0913 21.5942 26.4844 21.1084 26.4844Z" fill="#4F46E5"/>
<path d="M9.05045 19.6524C9.03615 19.6429 9.02022 19.6363 9.00592 19.6266C4.41902 20.3788 0.893555 24.3244 0.893555 29.1211C0.893555 29.6069 1.28666 30 1.77246 30H13.1982V25.8866C9.2151 19.9016 10.0279 21.1235 9.05045 19.6524Z" fill="#4F46E5"/>
</g>
<defs>
<clipPath id="clip0_116_320">
<rect width="30" height="30" fill="white"/>
</clipPath>
</defs>
</svg>

<svg fill="none" xmlns="http://www.w3.org/2000/svg" viewBox="0 0 30 30"><g clip-path="url(#a)"><path d="M27.349 14.224v-9.17a.9.9 0 0 0-.094-.38c.034-.093.094-.176.094-.28a.88.88 0 0 0-.638-.845L14.406.033a.9.9 0 0 0-.482 0L1.619 3.55a.88.88 0 0 0 0 1.691l4.636 1.324v1.04c0 1 .555 1.92 1.414 2.342 3.94 1.936 9.05 1.936 12.992.001.859-.422 1.414-1.342 1.414-2.342v-1.04l3.516-1.005v8.664a2.63 2.63 0 0 0-1.758 2.475v1.758c0 .486.393.879.879.879h3.516a.88.88 0 0 0 .878-.879V16.7c0-1.144-.737-2.11-1.757-2.475" fill="#4F46E5"/><path d="M21.347 11.642c-2.21 1.085-4.723 1.659-7.27 1.659s-5.061-.574-7.271-1.66c-.216-.106-.395-.264-.587-.404.188 3.164 1.89 5.848 4.295 7.223 0 0 1.234.583 1.62.693l.001-.003c.624.178 1.267.303 1.942.303a7.2 7.2 0 0 0 2.378-.448c.405-.144 1.182-.543 1.182-.543 2.407-1.375 4.11-4.06 4.298-7.224-.192.14-.371.297-.588.404" fill="#6366F1"/><path d="M14.077 21.211c-.708 0-1.39-.11-2.055-.27l2.055 3.082 2.043-3.079a8.7 8.7 0 0 1-2.043.267" fill="#818CF8"/><path d="m19.136 19.635-.048.028-.74 1.108c0 .041-3.37 5.082-3.392 5.116V30h11.426a.88.88 0 0 0 .879-.879c0-4.8-3.533-8.74-8.125-9.486m1.972 6.85h-1.757a.878.878 0 1 1 0-1.758h1.757a.878.878 0 1 1 0 1.757M9.05 19.652l-.044-.025C4.419 20.379.894 24.324.894 29.12c0 .486.393.879.878.879h11.426v-4.113c-3.983-5.985-3.17-4.764-4.148-6.235" fill="#4F46E5"/></g><defs><clipPath id="a"><path fill="#fff" d="M0 0h30v30H0z"/></clipPath></defs></svg>
